X: 60
T:Stoney Steps Hornpipe. WM.060
M:C
L:1/8
Q:180
S:Wm.Mittell's MS,New Romney,Kent,1799
R:Hornpipe
O:England
A:Kent
N:Sometimes attributed to James Hill of Gateshead,who was active
N:in1840-60 approx.This is the same A Music, but apparently much
N:earlier.Needs looking into.
N:Also see Brewer's Horse in Chappell cfGraham Dixon,The Music of James
N:Hill.
Z:vmp.Chris Partington
K:D
dAfd afd'b|gece dcBA|BGFG EGBe|gabd d2-c2|!
dAfd afd'b|gece dcBA|BGFG EFD2|gedcd4:|!
|:FDAF dAfd|gbge dcBA|BdgB cadd'|c'ba^ga4|!
bgfg afdA|(3Bcd) (3efg) dcBA|BGFG EFD2|gedcd4:||
